module-10/img/icons/clock.svg

<svg xmlns="http://www.w3.org/2000/svg" viewBox="0 0 32 31"><path fill="#95e1d3" d="M30.74 9.503a15.723 15.723 0 00-8.243-8.243c1-.787 2.258-1.26 3.629-1.26A5.874 5.874 0 0132 5.874a5.846 5.846 0 01-1.26 3.629zM30.5 16c0 3.852-1.512 7.343-3.963 9.94l2.029 2.028a1.483 1.483 0 11-2.098 2.097l-2.178-2.178A14.426 14.426 0 0116 30.5c-3.079 0-5.928-.966-8.276-2.603L5.561 30.06a1.5 1.5 0 01-2.122-2.121l2.012-2.012C3.008 23.332 1.5 19.845 1.5 16 1.5 7.992 7.992 1.5 16 1.5S30.5 7.992 30.5 16zM16 4.5C9.649 4.5 4.5 9.648 4.5 16c0 6.351 5.149 11.5 11.5 11.5S27.5 22.351 27.5 16c0-6.352-5.149-11.5-11.5-11.5zm6 13h-6a1.5 1.5 0 01-1.5-1.5V8a1.5 1.5 0 013 0v6.499H22a1.5 1.5 0 010 3.001zM1.287 9.705A5.964 5.964 0 010 6a6 6 0 016-6c1.4 0 2.685.483 3.706 1.287a16.057 16.057 0 00-8.419 8.418z"/></svg>

<svg xmlns="http://www.w3.org/2000/svg" viewBox="0 0 32 31">
    <path d="M30.740,9.503 C29.156,5.807 26.193,2.843 22.497,1.260 C23.497,0.473 24.755,-0.000 26.126,-0.000 C29.370,-0.000 32.000,2.630 32.000,5.874 C32.000,7.245 31.527,8.503 30.740,9.503 ZM30.500,16.000 C30.500,19.852 28.988,23.343 26.537,25.940 L28.566,27.968 C28.834,28.237 29.000,28.607 29.000,29.017 C29.000,29.836 28.336,30.500 27.517,30.500 C27.107,30.500 26.736,30.334 26.468,30.065 L24.290,27.887 C21.939,29.529 19.085,30.500 16.000,30.500 C12.921,30.500 10.072,29.534 7.724,27.897 L5.561,30.060 C5.289,30.332 4.914,30.500 4.500,30.500 C3.672,30.500 3.000,29.828 3.000,28.999 C3.000,28.586 3.168,28.210 3.439,27.939 L5.451,25.927 C3.008,23.332 1.500,19.845 1.500,16.000 C1.500,7.992 7.992,1.500 16.000,1.500 C24.008,1.500 30.500,7.992 30.500,16.000 ZM16.000,4.500 C9.649,4.500 4.500,9.648 4.500,16.000 C4.500,22.351 9.649,27.500 16.000,27.500 C22.351,27.500 27.500,22.351 27.500,16.000 C27.500,9.648 22.351,4.500 16.000,4.500 ZM22.000,17.500 L16.000,17.500 C15.172,17.500 14.500,16.828 14.500,16.000 L14.500,8.000 C14.500,7.172 15.172,6.500 16.000,6.500 C16.828,6.500 17.500,7.172 17.500,8.000 L17.500,14.499 L22.000,14.499 C22.828,14.499 23.500,15.171 23.500,16.000 C23.500,16.828 22.828,17.500 22.000,17.500 ZM1.287,9.705 C0.483,8.685 -0.000,7.400 -0.000,6.000 C-0.000,2.686 2.686,-0.000 6.000,-0.000 C7.400,-0.000 8.685,0.483 9.706,1.287 C5.931,2.904 2.904,5.931 1.287,9.705 Z"/>
</svg>
